!!!OTL-incipit: UND UNTERM BRUSTLATZ THUTS MIR JUCKEN
!!!ARE: Europa, Mitteleuropa, Deutschland, Schwaben
!!!SCT: Z0253
!!!YEM: Copyright 1995, estate of Helmut Schaffrath.
**kern	**text
*ICvox	*
*M3/4	*
*k[f#c#]	*
*D:	*
{8a	Und
8f#	un-
8g	-term
=1	=1
8aL	Bruſt-
8ff#J	.
8ff#L	-latʒ
8eeJ	.
16eeqq	.
16ddL	thuts
16cc#J	.
16ddL	mir
16bJ	.
=2	=2
8aL	juk-
8dJ	.
8f#}	-ken,
{8a	komm
8b/	an
8a	mein
=3	=3
8aL	Herʒ
8c#	.
8eJ	.
8g	und
8b/	laß
8a	dich
=4	=4
8aL	druk-
8dJ	.
4f#}	-ken,
{8f#	denn
8g	du
=5	=5
8aL	weißt
8ff#J	.
8ff#L	ja
8eeJ	.
16eeqq	.
16ddL	gar
16cc#J	.
16ddL	ʒu
16bJ	.
=6	=6
(4a	wohl,
8f#)}	.
{8a	daß
8b/	ich
8a	dich
=7	=7
8a/L	e-
8cc#J	-wig,
8ee	e-
8gg	-wig
8ff#	lie-
8ee	-ben
=8	=8
4dd	ſoll.
8r}	.
{8a	La
8b/	la
8a	la
=9	=9
8aL	la
8c#J	.
8c#	la
8a	la
8b/	la
8a	la
=10	=10
8aL	la
8dJ	.
8d}	la
{8a	la
8b/	la
8a	la
=11	=11
8aL	la
8c#J	.
8e	la
8g	la
8b/	la
8a	la
=12	=12
8aL	la
8dJ	.
4f#}	la,
{8f#	denn
8g	du
=13	=13
8aL	weißt
8ff#J	.
8ff#L	ja
8eeJ	.
16eeqq	.
16ddL	gar
16cc#J	.
16ddL	ʒu
16bJ	.
=14	=14
(4a	wohl,
8f#)}	.
{8a	daß
8b/	ich
8a	dich
=15	=15
8a	e-
8cc#	-wig,
8ee	e-
8gg	-wig
8ff#	lie-
8ee	-ben
=16	=16
4dd	ſoll.
8r}	.
==	==
!!!AGN: lyrisches Lied, Romanze
!!!ONB: ESAC (Essen Associative Code) Database: ZUCCAL
!!!AMT: simple triple
!!!AIN: vox
!!!EED: Helmut Schaffrath
!!!EEV: 1.0
!!!GTL: IV. Lyrische Lieder.
!!!URL-scan: https://www.digitale-sammlungen.de/de/view/bsb11160571?page=468
!!!ENC: Anna Maria Matuszewska
!!!EEV: 2025/01/30
*-	*-
